file/duolingo.svg

<svg clip-rule="evenodd" fill-rule="evenodd" stroke-linejoin="round" stroke-miterlimit="1.41421" viewBox="0 0 560 400" xmlns="http://www.w3.org/2000/svg"><path d="m127.3 239.4h9v18c0 4.9-.5 8.3-1.4 10.2-1.2 2.9-2.9 5-5.4 6.6-2.4 1.6-5.4 2.3-9 2.3-3.8 0-7.1-.9-9.5-2.6-2.4-1.9-4.2-4.3-5.2-7.5-.5-1.9-.9-4.9-1-9v-18h9.2v17.8c0 3.1.2 5.2.7 6.4.5 1.4 1.2 2.4 2.3 3.1 1 .7 2.3 1 3.8 1 1.6 0 2.8-.3 3.8-1 1.2-.7 1.9-1.7 2.4-3.1.3-.9.5-2.9.5-6.2v-.4h-.2zm47.7 8.6c1.7 2.9 2.4 6.1 2.8 9.4 0 3.5-.9 6.6-2.6 9.5s-4 5.2-6.9 6.9c-2.9 1.6-6.2 2.4-9.7 2.4-5 0-9.5-1.9-13.2-5.5-3.6-3.6-5.5-8.1-5.5-13.3 0-5.7 2.1-10.2 6.2-14 3.6-3.3 7.8-4.9 12.5-4.9 3.3 0 6.6.9 9.5 2.6s5.1 4 6.9 6.9zm-6.6 9.4c0-2.9-.9-5.5-2.8-7.5-1.9-1.9-4.2-2.9-7.1-2.9-2.8 0-5 1-6.9 2.9s-2.8 4.5-2.8 7.5c0 3.1.9 5.7 2.8 7.6 1.7 1.9 4 2.9 6.9 2.9s5.2-1 7.1-2.9c1.8-1.9 2.8-4.5 2.8-7.6zm-76.8-30.2h9v31.4c-.2 2.9-.9 5.7-2.4 8.3-1.7 2.9-4 5.2-6.9 6.9-2.9 1.6-6.2 2.4-9.7 2.4-5 0-9.5-1.9-13.2-5.5-3.6-3.6-5.5-8.1-5.5-13.3 0-5.5 2.1-10.2 6.2-14 3.6-3.3 7.8-4.9 12.5-4.9 3.3 0 6.6.9 9.5 2.6.2 0 .3.2.5.2zm-.1 30.2c0-2.9-.9-5.5-2.8-7.5-1.9-1.9-4.2-2.9-7.1-2.9-2.8 0-5 1-6.9 2.9s-2.8 4.5-2.8 7.5c0 3.1.9 5.7 2.8 7.6 1.7 1.9 4.2 2.9 6.9 2.9 2.9 0 5.2-1 7.1-2.9s2.8-4.5 2.8-7.6zm162.3-9.7c-1.2-2.8-2.9-5-5.4-6.6-2.4-1.6-5.4-2.3-9-2.3-4 0-7.1.9-9.5 2.6s-4.2 4.2-5.2 7.5c-.5 1.7-.9 4.9-1 9v17.8h9.2v-17.3-.7c0-2.9.2-5.2.7-6.4.5-1.4 1.2-2.3 2.3-3.1 1-.7 2.3-1 3.8-1s2.8.3 3.8 1 1.9 1.7 2.4 3.1c.3 1 .5 3.1.5 6.2v18.2h9v-15.2-2.8c-.2-4.6-.7-8.1-1.6-10zm-60.5 18.7c-1-.7-1.9-1.7-2.3-3.1-.3-1-.5-3.1-.5-6.2v-29.8h-9v29.6c.2 4.9.5 8.1 1.4 10.2 1.2 2.8 2.9 5 5.4 6.6 2.4 1.6 5.4 2.3 9 2.3h6.9v-8.5h-7.1c-1.5-.1-2.7-.4-3.8-1.1zm143.5-8.5c0 3.3-.9 6.4-2.6 9.4-1.6 2.9-4 5.2-6.9 6.9s-6.1 2.6-9.5 2.6c-4.7 0-8.8-1.6-12.5-4.9-4.2-3.8-6.2-8.5-6.2-14 0-5.2 1.9-9.7 5.5-13.3s8-5.5 13.2-5.5c3.6 0 6.8.7 9.7 2.4s5.2 4 6.9 6.9 2.6 6 2.4 9.5zm-9 0c0-3.1-.9-5.7-2.8-7.6s-4.3-2.9-7.1-2.9-5 1-6.9 2.9-2.8 4.5-2.8 7.6c0 2.9.9 5.5 2.8 7.5 1.7 1.9 4.2 2.9 6.9 2.9 2.9 0 5.2-1 7.1-2.9s2.8-4.4 2.8-7.5zm-31.9-1.6c.2.3.2.9 0 1.2v20.1c0 3.3-.7 6.4-2.4 9.4-1.7 2.9-4 5.2-6.9 6.9s-6.2 2.6-9.5 2.6c-4.5 0-8.7-1.6-12.3-4.9l-.2-.2 5.9-6.2c1.9 1.9 4.2 2.8 6.9 2.8 2.8 0 5-1 6.9-2.9 1.7-1.9 2.8-4.3 2.8-7.5v-4.2c-.2.2-.3.2-.5.3-2.9 1.7-6.2 2.6-9.5 2.6-4.7 0-8.7-1.6-12.3-4.9-4-3.6-6.1-8.3-6.1-13.9 0-5.2 1.7-9.7 5.4-13.3 3.6-3.8 8-5.5 13.2-5.5 3.5 0 6.6.7 9.5 2.4 2.8 1.7 5 4 6.8 6.9 1.3 2.8 2.2 5.4 2.3 8.3zm-8.8 1.3c0-3.1-1-5.5-2.8-7.6-1.7-1.9-4.2-2.9-6.9-2.9-2.8 0-5 1-6.9 2.9-1.9 2.1-2.8 4.5-2.8 7.6s.9 5.5 2.8 7.5c1.9 1.9 4.2 2.9 6.9 2.9 2.8 0 5-1 6.9-2.9s2.8-4.4 2.8-7.5zm-73.8-29.7c-2.6 0-4.9 2.3-4.9 4.9s2.1 4.9 4.9 4.9c2.6 0 4.9-2.1 4.9-4.9-.1-2.8-2.3-4.9-4.9-4.9zm-4.4 47.9h9.2v-34.8h-9.2z" fill="#70b100" fill-rule="nonzero" transform="matrix(.918993 0 0 .918993 96.3267 62.5187)"/><g transform="matrix(.918993 0 0 .918993 128.491455 62.5187)"><g fill-rule="nonzero"><path d="m132.6 2.7c17.1 0 21.2 22.8 54.9 22.8 21.3 0 22.5-8.8 32.3-8.8 4 0 6.3 7.7 6.3 12.9 0 20.3-5.2 43-1.8 43 4.4 0 22.4-11.6 27-11.6 4.4 0 4.3 3.4 4.3 5.4s1.3 35.6-44 62.1c-2 1.2-11.6 43.2-45.5 43.2-22.6 0-39.9-12.3-46.4-41.7-1.3-6-49.7-25.2-49.7-67.4 0-9.3 2.3-14.3 5.9-14.3 8.9 0 28 15.1 36.2 15.1 7.1 0 6-15.6 6-20.3-.1-4.9-.5-40.4 14.5-40.4z" fill="#78c800"/><path d="m206.5 33.7c-.5-.5 2.2-1.7 2.2-2.2 0-.3-.4-.2-.9-.2-3.3 0-9.6 4.7-10.4 4.7-.4 0-1 .1-1-.5 0-1.3 4.5-2.5 1.4-2.5s-7.8 4-12.5 4c-9.9 0-17.8-7.8-17.8-5.9 0 .7 1.2 1.8 1.9 3.2 0 0 .4 2.1-.4 1.3-9.1-9.1-18.2-11.3-18.2-11.3s-.7 0-.7.3c0 1 2 2.4 2 2.8s-.3.7-.7.7c-1.9 0-3.3-3.7-11.1-3.7-11.8 0-14.9 18.5-14.9 33.7 0 21.5 13.8 28.4 25.3 28.4 9.1 0 18.8-5.4 22.9-13.2l12.1.9s5.9 11.2 16.5 11.2c10 0 18.7-6.4 18.7-28.3-.3-23.1-6.3-24.1-9.3-24.1-3.3.1-4 1.7-5.1.7z" fill="#8ee000"/><path d="m148.9 79.4c8.6 0 15.6-8.6 15.6-19.2s-7-19.2-15.6-19.2-15.6 8.6-15.6 19.2 7 19.2 15.6 19.2zm65.8-17.6c-.5 9.2-6.5 16.6-13.4 16.3s-12.2-8-11.7-17.2 6.5-16.6 13.4-16.3c7 .2 12.2 7.9 11.7 17.2z" fill="#fff"/><path d="m148.9 71c4.6 0 8.4-4.8 8.4-10.8s-3.8-10.8-8.4-10.8-8.4 4.8-8.4 10.8 3.7 10.8 8.4 10.8zm59.8-9.2c-.4 5.3-3.9 9.4-7.9 9.2-3.9-.2-6.9-4.6-6.5-9.9s3.9-9.4 7.9-9.2c4 .1 6.9 4.6 6.5 9.9z" fill="#3f3f3f"/><path d="m169.3 80.1c0 9.2-1 20.6 4.2 20.6 6.5 0 5.3-9.9 5.2-10 .1-.1-9.4-10.6-9.4-10.6z" fill="#71b200"/><path d="m142.3 56.6c2.3 0 4.2-1.9 4.2-4.2s-1.9-4.2-4.2-4.2-4.2 1.9-4.2 4.2 1.9 4.2 4.2 4.2zm58.1-.7c.1 2.3-1.4 4.2-3.5 4.3-2 .1-3.6-1.8-3.7-4.1s1.4-4.2 3.5-4.3c1.9 0 3.6 1.8 3.7 4.1z" fill="#fff"/><path d="m248.3 93.8c-9 13.1-27.8 23.4-30.9 23.4-3.5 0-1.1-3.7-3.6-3.7-2.3 0-2.7 39.1-42.9 39.1-45.2 0-44.2-46.6-48.5-46.6-3.2 0-1.1 6.8-4.5 6.8-11.4 0-41.8-23-46.9-39.4 7.1 34.8 47.5 51.1 48.8 56.7 6.6 29.3 23.9 41.6 46.5 41.6 33.9 0 43.6-41.9 45.6-43.1 18.8-10.9 29.9-23.6 36.4-34.8z" fill="#71b200"/><path d="m169.2 77.7c0 5.4-.7 16.2 5.8 16.2 6.9 0 9.3-8.6 9.3-14s-15.1-2.2-15.1-2.2z" fill="#f49000"/><path d="m190.8 82.3c0 6.2-5.3 12.6-7 12.6-1.8 0-14.5-11.4-14.5-16.3s4.8-8.8 11.7-8.8c5.5 0 9.8 6.3 9.8 12.5z" fill="#ffc200"/><path d="m180.1 72.2c-2-.1-3.6.8-3.7 2.1s1.5 2.5 3.5 2.6 3.6-.8 3.7-2.1-1.5-2.4-3.5-2.6z" fill="#fff3b8"/><path d="m159.7 176.5c5.7-.3 9.8.9 10.1 6.2.2 5.3-6.7 6.6-10.4 6.9-3.7.2-7.9-1.5-8.1-5.4-.2-3.7 3.2-7.4 8.4-7.7zm35-10.8c5.5-.3 5.5 5.8 5.6 6.3 0 .5.6 6.4-9 6.9-6 .3-5.9-2.5-5.9-3.8 0-1.5 2.4-9 9.3-9.4z" fill="#d98500"/></g><ellipse cx="166.2" cy="206.4" fill="#e0e0e0" rx="49.7" ry="4.8"/></g></svg>

<?xml version="1.0" encoding="UTF-8" standalone="no"?>
<!DOCTYPE svg PUBLIC "-//W3C//DTD SVG 1.1//EN" "http://www.w3.org/Graphics/SVG/1.1/DTD/svg11.dtd">
<svg width="100%" height="100%" viewBox="0 0 560 400" version="1.1" xmlns="http://www.w3.org/2000/svg" xmlns:xlink="http://www.w3.org/1999/xlink" xml:space="preserve" xmlns:serif="http://www.serif.com/" style="fill-rule:evenodd;clip-rule:evenodd;stroke-linejoin:round;stroke-miterlimit:1.41421;">
    <g transform="matrix(0.918993,0,0,0.918993,96.3267,62.5187)">
        <g>
            <path id="text" d="M127.3,239.4L136.3,239.4L136.3,257.4C136.3,262.3 135.8,265.7 134.9,267.6C133.7,270.5 132,272.6 129.5,274.2C127.1,275.8 124.1,276.5 120.5,276.5C116.7,276.5 113.4,275.6 111,273.9C108.6,272 106.8,269.6 105.8,266.4C105.3,264.5 104.9,261.5 104.8,257.4L104.8,239.4L114,239.4L114,257.2C114,260.3 114.2,262.4 114.7,263.6C115.2,265 115.9,266 117,266.7C118,267.4 119.3,267.7 120.8,267.7C122.4,267.7 123.6,267.4 124.6,266.7C125.8,266 126.5,265 127,263.6C127.3,262.7 127.5,260.7 127.5,257.4L127.5,257L127.3,257L127.3,239.4ZM175,248C176.7,250.9 177.4,254.1 177.8,257.4C177.8,260.9 176.9,264 175.2,266.9C173.5,269.8 171.2,272.1 168.3,273.8C165.4,275.4 162.1,276.2 158.6,276.2C153.6,276.2 149.1,274.3 145.4,270.7C141.8,267.1 139.9,262.6 139.9,257.4C139.9,251.7 142,247.2 146.1,243.4C149.7,240.1 153.9,238.5 158.6,238.5C161.9,238.5 165.2,239.4 168.1,241.1C171,242.8 173.2,245.1 175,248ZM168.4,257.4C168.4,254.5 167.5,251.9 165.6,249.9C163.7,248 161.4,247 158.5,247C155.7,247 153.5,248 151.6,249.9C149.7,251.8 148.8,254.4 148.8,257.4C148.8,260.5 149.7,263.1 151.6,265C153.3,266.9 155.6,267.9 158.5,267.9C161.4,267.9 163.7,266.9 165.6,265C167.4,263.1 168.4,260.5 168.4,257.4ZM91.6,227.2L100.6,227.2L100.6,258.6C100.4,261.5 99.7,264.3 98.2,266.9C96.5,269.8 94.2,272.1 91.3,273.8C88.4,275.4 85.1,276.2 81.6,276.2C76.6,276.2 72.1,274.3 68.4,270.7C64.8,267.1 62.9,262.6 62.9,257.4C62.9,251.9 65,247.2 69.1,243.4C72.7,240.1 76.9,238.5 81.6,238.5C84.9,238.5 88.2,239.4 91.1,241.1C91.3,241.1 91.4,241.3 91.6,241.3L91.6,227.2ZM91.5,257.4C91.5,254.5 90.6,251.9 88.7,249.9C86.8,248 84.5,247 81.6,247C78.8,247 76.6,248 74.7,249.9C72.8,251.8 71.9,254.4 71.9,257.4C71.9,260.5 72.8,263.1 74.7,265C76.4,266.9 78.9,267.9 81.6,267.9C84.5,267.9 86.8,266.9 88.7,265C90.6,263.1 91.5,260.5 91.5,257.4ZM253.8,247.7C252.6,244.9 250.9,242.7 248.4,241.1C246,239.5 243,238.8 239.4,238.8C235.4,238.8 232.3,239.7 229.9,241.4C227.5,243.1 225.7,245.6 224.7,248.9C224.2,250.6 223.8,253.8 223.7,257.9L223.7,275.7L232.9,275.7L232.9,258.4L232.9,257.7C232.9,254.8 233.1,252.5 233.6,251.3C234.1,249.9 234.8,249 235.9,248.2C236.9,247.5 238.2,247.2 239.7,247.2C241.2,247.2 242.5,247.5 243.5,248.2C244.5,248.9 245.4,249.9 245.9,251.3C246.2,252.3 246.4,254.4 246.4,257.5L246.4,275.7L255.4,275.7L255.4,260.5L255.4,257.7C255.2,253.1 254.7,249.6 253.8,247.7ZM193.3,266.4C192.3,265.7 191.4,264.7 191,263.3C190.7,262.3 190.5,260.2 190.5,257.1L190.5,227.3L181.5,227.3L181.5,256.9C181.7,261.8 182,265 182.9,267.1C184.1,269.9 185.8,272.1 188.3,273.7C190.7,275.3 193.7,276 197.3,276L204.2,276L204.2,267.5L197.1,267.5C195.6,267.4 194.4,267.1 193.3,266.4ZM336.8,257.9C336.8,261.2 335.9,264.3 334.2,267.3C332.6,270.2 330.2,272.5 327.3,274.2C324.4,275.9 321.2,276.8 317.8,276.8C313.1,276.8 309,275.2 305.3,271.9C301.1,268.1 299.1,263.4 299.1,257.9C299.1,252.7 301,248.2 304.6,244.6C308.2,241 312.6,239.1 317.8,239.1C321.4,239.1 324.6,239.8 327.5,241.5C330.4,243.2 332.7,245.5 334.4,248.4C336.1,251.3 337,254.4 336.8,257.9ZM327.8,257.9C327.8,254.8 326.9,252.2 325,250.3C323.1,248.4 320.7,247.4 317.9,247.4C315.1,247.4 312.9,248.4 311,250.3C309.1,252.2 308.2,254.8 308.2,257.9C308.2,260.8 309.1,263.4 311,265.4C312.7,267.3 315.2,268.3 317.9,268.3C320.8,268.3 323.1,267.3 325,265.4C326.9,263.5 327.8,261 327.8,257.9ZM295.9,256.3C296.1,256.6 296.1,257.2 295.9,257.5L295.9,277.6C295.9,280.9 295.2,284 293.5,287C291.8,289.9 289.5,292.2 286.6,293.9C283.7,295.6 280.4,296.5 277.1,296.5C272.6,296.5 268.4,294.9 264.8,291.6L264.6,291.4L270.5,285.2C272.4,287.1 274.7,288 277.4,288C280.2,288 282.4,287 284.3,285.1C286,283.2 287.1,280.8 287.1,277.6L287.1,273.4C286.9,273.6 286.8,273.6 286.6,273.7C283.7,275.4 280.4,276.3 277.1,276.3C272.4,276.3 268.4,274.7 264.8,271.4C260.8,267.8 258.7,263.1 258.7,257.5C258.7,252.3 260.4,247.8 264.1,244.2C267.7,240.4 272.1,238.7 277.3,238.7C280.8,238.7 283.9,239.4 286.8,241.1C289.6,242.8 291.8,245.1 293.6,248C294.9,250.8 295.8,253.4 295.9,256.3ZM287.1,257.6C287.1,254.5 286.1,252.1 284.3,250C282.6,248.1 280.1,247.1 277.4,247.1C274.6,247.1 272.4,248.1 270.5,250C268.6,252.1 267.7,254.5 267.7,257.6C267.7,260.7 268.6,263.1 270.5,265.1C272.4,267 274.7,268 277.4,268C280.2,268 282.4,267 284.3,265.1C286.2,263.2 287.1,260.7 287.1,257.6ZM213.3,227.9C210.7,227.9 208.4,230.2 208.4,232.8C208.4,235.4 210.5,237.7 213.3,237.7C215.9,237.7 218.2,235.6 218.2,232.8C218.1,230 215.9,227.9 213.3,227.9ZM208.9,275.8L218.1,275.8L218.1,241L208.9,241L208.9,275.8Z" style="fill:rgb(112,177,0);fill-rule:nonzero;"/>
        </g>
        <g id="owl" transform="matrix(1,0,0,1,35,0)">
            <path d="M132.6,2.7C149.7,2.7 153.8,25.5 187.5,25.5C208.8,25.5 210,16.7 219.8,16.7C223.8,16.7 226.1,24.4 226.1,29.6C226.1,49.9 220.9,72.6 224.3,72.6C228.7,72.6 246.7,61 251.3,61C255.7,61 255.6,64.4 255.6,66.4C255.6,68.4 256.9,102 211.6,128.5C209.6,129.7 200,171.7 166.1,171.7C143.5,171.7 126.2,159.4 119.7,130C118.4,124 70,104.8 70,62.6C70,53.3 72.3,48.3 75.9,48.3C84.8,48.3 103.9,63.4 112.1,63.4C119.2,63.4 118.1,47.8 118.1,43.1C118,38.2 117.6,2.7 132.6,2.7Z" style="fill:rgb(120,200,0);fill-rule:nonzero;"/>
            <path d="M206.5,33.7C206,33.2 208.7,32 208.7,31.5C208.7,31.2 208.3,31.3 207.8,31.3C204.5,31.3 198.2,36 197.4,36C197,36 196.4,36.1 196.4,35.5C196.4,34.2 200.9,33 197.8,33C194.7,33 190,37 185.3,37C175.4,37 167.5,29.2 167.5,31.1C167.5,31.8 168.7,32.9 169.4,34.3C169.4,34.3 169.8,36.4 169,35.6C159.9,26.5 150.8,24.3 150.8,24.3C150.8,24.3 150.1,24.3 150.1,24.6C150.1,25.6 152.1,27 152.1,27.4C152.1,27.8 151.8,28.1 151.4,28.1C149.5,28.1 148.1,24.4 140.3,24.4C128.5,24.4 125.4,42.9 125.4,58.1C125.4,79.6 139.2,86.5 150.7,86.5C159.8,86.5 169.5,81.1 173.6,73.3L185.7,74.2C185.7,74.2 191.6,85.4 202.2,85.4C212.2,85.4 220.9,79 220.9,57.1C220.6,34 214.6,33 211.6,33C208.3,33.1 207.6,34.7 206.5,33.7Z" style="fill:rgb(142,224,0);fill-rule:nonzero;"/>
            <path d="M148.9,79.4C157.5,79.4 164.5,70.8 164.5,60.2C164.5,49.6 157.5,41 148.9,41C140.3,41 133.3,49.6 133.3,60.2C133.3,70.8 140.3,79.4 148.9,79.4ZM214.7,61.8C214.2,71 208.2,78.4 201.3,78.1C194.4,77.8 189.1,70.1 189.6,60.9C190.1,51.7 196.1,44.3 203,44.6C210,44.8 215.2,52.5 214.7,61.8Z" style="fill:white;fill-rule:nonzero;"/>
            <path d="M148.9,71C153.5,71 157.3,66.2 157.3,60.2C157.3,54.2 153.5,49.4 148.9,49.4C144.3,49.4 140.5,54.2 140.5,60.2C140.5,66.2 144.2,71 148.9,71ZM208.7,61.8C208.3,67.1 204.8,71.2 200.8,71C196.9,70.8 193.9,66.4 194.3,61.1C194.7,55.8 198.2,51.7 202.2,51.9C206.2,52 209.1,56.5 208.7,61.8Z" style="fill:rgb(63,63,63);fill-rule:nonzero;"/>
            <path d="M169.3,80.1C169.3,89.3 168.3,100.7 173.5,100.7C180,100.7 178.8,90.8 178.7,90.7C178.8,90.6 169.3,80.1 169.3,80.1Z" style="fill:rgb(113,178,0);fill-rule:nonzero;"/>
            <path d="M142.3,56.6C144.6,56.6 146.5,54.7 146.5,52.4C146.5,50.1 144.6,48.2 142.3,48.2C140,48.2 138.1,50.1 138.1,52.4C138.1,54.7 140,56.6 142.3,56.6ZM200.4,55.9C200.5,58.2 199,60.1 196.9,60.2C194.9,60.3 193.3,58.4 193.2,56.1C193.1,53.8 194.6,51.9 196.7,51.8C198.6,51.8 200.3,53.6 200.4,55.9Z" style="fill:white;fill-rule:nonzero;"/>
            <path d="M248.3,93.8C239.3,106.9 220.5,117.2 217.4,117.2C213.9,117.2 216.3,113.5 213.8,113.5C211.5,113.5 211.1,152.6 170.9,152.6C125.7,152.6 126.7,106 122.4,106C119.2,106 121.3,112.8 117.9,112.8C106.5,112.8 76.1,89.8 71,73.4C78.1,108.2 118.5,124.5 119.8,130.1C126.4,159.4 143.7,171.7 166.3,171.7C200.2,171.7 209.9,129.8 211.9,128.6C230.7,117.7 241.8,105 248.3,93.8Z" style="fill:rgb(113,178,0);fill-rule:nonzero;"/>
            <path d="M169.2,77.7C169.2,83.1 168.5,93.9 175,93.9C181.9,93.9 184.3,85.3 184.3,79.9C184.3,74.5 169.2,77.7 169.2,77.7Z" style="fill:rgb(244,144,0);fill-rule:nonzero;"/>
            <path d="M190.8,82.3C190.8,88.5 185.5,94.9 183.8,94.9C182,94.9 169.3,83.5 169.3,78.6C169.3,73.7 174.1,69.8 181,69.8C186.5,69.8 190.8,76.1 190.8,82.3Z" style="fill:rgb(255,194,0);fill-rule:nonzero;"/>
            <path d="M180.1,72.2C178.1,72.1 176.5,73 176.4,74.3C176.3,75.6 177.9,76.8 179.9,76.9C181.9,77 183.5,76.1 183.6,74.8C183.7,73.5 182.1,72.4 180.1,72.2Z" style="fill:rgb(255,243,184);fill-rule:nonzero;"/>
            <path d="M159.7,176.5C165.4,176.2 169.5,177.4 169.8,182.7C170,188 163.1,189.3 159.4,189.6C155.7,189.8 151.5,188.1 151.3,184.2C151.1,180.5 154.5,176.8 159.7,176.5ZM194.7,165.7C200.2,165.4 200.2,171.5 200.3,172C200.3,172.5 200.9,178.4 191.3,178.9C185.3,179.2 185.4,176.4 185.4,175.1C185.4,173.6 187.8,166.1 194.7,165.7Z" style="fill:rgb(217,133,0);fill-rule:nonzero;"/>
            <ellipse cx="166.2" cy="206.4" rx="49.7" ry="4.8" style="fill:rgb(224,224,224);"/>
        </g>
    </g>
</svg>
